X: 1
T: The Cascade
M: 2/4
L: 1/8
R: polka
K: G
V: Melody
|: "G" BA/B/ dD    | "C" ED "D" AD | "G" BA/B/      dB | "D7" BA A2  |
   "G" BA/B/ cD    | "C" ED "D" AD | "G" BA/B/ "D7" dB | "G"  AG G2 :|
|: "G" Bd    dB/d/ |     eB     dB |     BA/B/      dB | "D7" BA A2  |
   "G" Bd    dB/d/ |     eB     dG | "G" BA/B/ "D7" dB | "G"  AG G2 :|
